X:500
T:Mary's Shoes
R:jig
D:Inishkeeragh by Brenda McCann
Z:Alf warnock, alf0@rogers.com - http://members.rogers.com/alf0
M:6/8
L:1/8
K:F
CD| "F"F2F GFD|"Dm"CFA cag|"F"fdc dcA|"Gm"cAF "C"GFD|
"F"F2F GFD|"Dm"A,CF Acf|"F"dcA cAF|"C"GFE "F"F:|
de|\
"F"f2f edc|"Dm"def cAF|"F"CFA CFA|"Gm"cAF "C"Gcd|
|[1"F"f2f edc|"Dm"def cAF|"Gm"B2B GcB|"C"AFE "F"F:|
|[2 "F"f2f gfg|"Dm"afd cAF|"Gm"AFD CFA|"C"GFE "F"F3|]
